Adwaita++-Dark/apps/16/gsconnect.svg

<svg viewBox="0 0 16 16" xmlns="http://www.w3.org/2000/svg">
  <path d="m3 4h12v-2l-11.9986955-.0013c-1.0013045-.0001085-2.0013045 1.0013-2.0013045 2.0013045v7.9999955h-1v2h9v-2h-6zm12 2h-3c-.5 0-1 .5-1 1v6c0 .5.5 1 1 1h3c.5 0 1-.5 1-1v-6c0-.5-.5-1-1-1zm0 6h-3v-5h3z" fill="#e6ddff"/>
</svg>

<svg xmlns="http://www.w3.org/2000/svg" version="1.1" viewBox="0 0 16 16">
 <path fill="#E6DDFF" d="M 3,4 H 15 V 2 L 3.0013045,1.9987 C 2,1.9985915 1,3 1,4.0000045 V 12 H 0 v 2 H 9 V 12 H 3 Z m 12,2 h -3 c -0.5,0 -1,0.5 -1,1 v 6 c 0,0.5 0.5,1 1,1 h 3 c 0.5,0 1,-0.5 1,-1 V 7 C 16,6.5 15.5,6 15,6 Z m 0,6 H 12 V 7 h 3 z"/>
</svg>
